X:1
T: The Bay of Ireland
C:Irene Flett
R:Reel
Q:232
K:A
M:4/4
L:1/8
ed|c2e2 A2c2|E2E2 A2A2|D2D2 F2A2|E2E2 A3B|c2E2 A2c2|e3d c2A2|E2E2 c2A2|B4 e2d2|
c2e2 A2c2|E2E2 A2A2|D2D2 F2A2|E2E2 A4|D3E F2D2|G3A B2G2|A2A2 c3B|A4 c3d|
e2A2 c2e2|c'3b a2e2|d2d2 f2a2|d2d2 f2a2|A3c e2a2|c'3b a2e2|d4 d2c2|B4 e3d|
c2e2 a2b2|c'3b a2e2|d2d2 f2a2|d2d2 f2a2|A2A2 c2e2|E2E2 c3B|A4 A3B|A8|
K:G
|:G2G2 B2D2|g3f e2d2|A3B c2A2|E8|A3B c2d2|f3e d2c2|G3F G2B2|D8|
G2G2 B2d2|g3f e2d2|A3B c2A2|E6^D2|D2D2 F2A2|d2^c2 =c2A2|d^cdc' b2a2|1g8:|2g4 e3d||
